X:1
T:Title
T:SUITE N°1 PRELUDIO
T:J. S. Bach
T:6=D
C:Composer
L:1/8
M:4/4
K:D
V:1 treble-8 nm="Guitarra clásica" snm="Guit."
V:1
 D/A/f/e/ f/A/f/e/ D,/A/f/e/ f/A/f/A/ | D/B/g/f/ g/B/g/B/ D,/B/g/f/ g/B/g/B/ | %2
 D/A/g/f/ g/A/g/A/ D,/c/g/f/ g/c/g/c/ | D/d/f/e/ f/d/f/d/ D,/d/f/e/ f/d/f/c/ | %4
 D/B/f/e/ f/d/c/d/ B/d/c/d/ F/A/_A/F/ | _A/d/e/d/ e/d/e/d/ _A,/d/e/d/ e/d/e/d/ | %6
 !3![A,c]/!0!e/!2!a/!1!_a/ !2!=a/!0!e/!3!d/e/ c/e/d/e/ A/c/B/A/ | %7
 B,/F/d/c/ d/F/d/F/ B,/F/d/c/ d/F/d/F/ | E,/_A/=A/B/ A/_A/F/E/ d/c/B/a/ _a/f/e/d/ | %9
 [A,c]/B/A/a/ e/a/c/e/ A/B/c/e/ d/c/B/A/ | [A,_e]/A/=c/B/ c/A/e/A/ [A,f]/A/c/B/ c/A/e/A/ | %11
 G,/B/e/f/ g/e/B/A/ G,/B/e/f/ g/e/c/B/ | [F,_B]/c/B/c/ e/c/e/c/ [FB]/c/B/c/ e/c/e/c/ | %13
 [B,d]/c/B/d/ c/d/e/c/ [B,d]/c/B/A/ G/F/E/D/ | C/G/A/G/ A/G/A/G/ C/G/A/G/ A/G/A/G/ | %15
 D/F/=c/B/ c/F/c/F/ D,/A/c/B/ c/F/c/F/ | D/G/B/A/ B/G/B/G/ D,/G/B/A/ B/G/B/G/ | %17
 D/c/g/f/ g/c/g/c/ D,/c/g/f/ g/c/g/c/ | D/A/f/e/ f/d/c/B/ A/G/F/E/ D/C/B,/A,/ | %19
 _A,/E/B/c/ d/B/c/d/ A,/E/B/c/ d/B/c/d/ | G,/E/A/B/ c/A/B/c/ G,/E/A/B/ c/A/B/c/ | %21
 G,/E/A/c/ e/_a/[G,EAce=a]- [G,EAcea]/E/F/G/ A/B/c/d/ | %22
 [A,e]/c/A/B/ c/d/e/f/ [A,g]/d/A/G/ F/D/E/F/ | [A,c_b]/a/_a/=a/ a/g/f/g/ g/e/c/B/ A/E/F/G/ | %24
 A,/E/A/c/ e/f/g/e/ [A,f]/d/A/G/ F/D/E/F/ | A,/D/F/A/ d/e/f/d/ [A,G_a]/=f/e/f/ f/e/_e/=e/ | %26
 e/d/c/d/ d/B/_A/F/ E/A/B/d/ e/_a/=a/_a/ | [A,a]/e/c/B/ c/e/A/c/ E/A/_A/F/ E/D/C/B,/ | %28
 A,g/f/ e/d/c/B/ [A,A]/g/f/e/ d/c/B/A/ | [A,G]/f/e/d/ c/B/A/G/ [A,F]/e/d/c/ B/A/G/F/ | %30
 [A,E]/d/c/B/ c/e/A/e/ B/e/c/e/ d/e/B/e/ | c/e/A/e/ d/e/B/e/ c/e/A/e/ d/e/B/e/ | %32
 c/e/A/e/ B/e/c/e/ d/e/e/e/ f/e/A,/e/ | e/e/f/e/ g/e/A,/e/ f/e/g/e/ a/e/f/e/ | %34
 f/e/f/e/ g/e/e/e/ f/e/e/e/ f/e/d/e/ | e/e/d/e/ e/e/c/e/ d/e/c/e/ d/e/B/e/ | %36
 c/e/A/B/"_cresc." [_E=c]/A,/[=E^c]/A,/ [=Fd]/A,/[^F_e]/A,/ [G=e]/A,/[_A=f]/A,/ | %37
 [Af]/A,/[_Bg]/A,/ [=B_a]/A,/[=c=a]/A,/ [^c_b]/A,/[d=b]/A,/ [_e=c']/A,/[=e^c']/A,/ | %38
 [A,d']/f/A/f/ d'/f/d'/f/ [A,d']/f/A/f/ d'/f/d'/f/ | %39
 [A,d']/e/A/e/ d'/e/d'/e/ [A,d']/e/A/e/ d'/e/d'/e/ | %40
 [A,c']/g/A/g/ c'/g/c'/g/ [A,c']/g/A/g/ c'/g/c'/g/ | [D,A,Ddfd']8 |] %42

